admin/public/logo.svg

<?xml version="1.0" encoding="UTF-8" standalone="no"?>
<!-- Generator: Adobe Illustrator 13.0.0, SVG Export Plug-In . SVG Version: 6.00 Build 14948)  -->
<svg
   xmlns:dc="http://purl.org/dc/elements/1.1/"
   xmlns:cc="http://web.resource.org/cc/"
   xmlns:rdf="http://www.w3.org/1999/02/22-rdf-syntax-ns#"
   xmlns:svg="http://www.w3.org/2000/svg"
   xmlns="http://www.w3.org/2000/svg"
   xmlns:sodipodi="http://sodipodi.sourceforge.net/DTD/sodipodi-0.dtd"
   xmlns:inkscape="http://www.inkscape.org/namespaces/inkscape"
   version="1.0"
   id="Layer_1"
   x="0px"
   y="0px"
   width="95"
   height="155"
   viewBox="0 0 192.756 192.756"
   enable-background="new 0 0 192.756 192.756"
   xml:space="preserve"
   sodipodi:version="0.32"
   inkscape:version="0.45.1"
   sodipodi:docname="Amnesty_International[1].svg"
   inkscape:output_extension="org.inkscape.output.svg.inkscape"
   sodipodi:docbase="C:\Users\Virgile"><metadata
   id="metadata7399"><rdf:RDF><cc:Work
       rdf:about=""><dc:format>image/svg+xml</dc:format><dc:type
         rdf:resource="http://purl.org/dc/dcmitype/StillImage" /></cc:Work></rdf:RDF></metadata><defs
   id="defs7397">
	
	
	
	
	
	
	
	
	
	
	
	
	
	
	
	
	
	
	
	
	
	
</defs><sodipodi:namedview
   inkscape:window-height="748"
   inkscape:window-width="1024"
   inkscape:pageshadow="2"
   inkscape:pageopacity="0.0"
   guidetolerance="10.0"
   gridtolerance="10.0"
   objecttolerance="10.0"
   borderopacity="1.0"
   bordercolor="#666666"
   pagecolor="#ffffff"
   id="base"
   height="155px"
   width="95px"
   inkscape:zoom="1.9558406"
   inkscape:cx="96.377998"
   inkscape:cy="96.377998"
   inkscape:window-x="1392"
   inkscape:window-y="-8"
   inkscape:current-layer="Layer_1" />

<path
   style="fill-rule:evenodd"
   id="path7394"
   d="M 109.51044,-50.725265 L 108.19002,-48.747258 L 106.79883,-46.803561 L 105.3045,-44.964821 L 103.74144,-43.158375 L 102.07117,-41.422573 L 100.36656,-39.757412 L 98.556793,-38.124546 L 96.714673,-36.562323 L 94.836153,-35.000101 L 92.923263,-33.506502 L 89.063093,-30.555637 L 81.237613,-24.793174 L 77.482603,-21.910934 L 75.638453,-20.419354 L 73.865083,-18.925756 L 72.160463,-17.399863 L 70.524593,-15.871954 L 68.961523,-14.2734 L 67.499553,-12.606221 L 66.142733,-10.943079 L 64.856683,-9.1729638 L 63.710163,-7.3665178 L 62.701133,-5.4914468 L 61.797263,-3.5477498 L 61.415083,-2.5405808 L 61.067293,-1.5334108 L 60.719493,-0.45761784 L 60.440443,0.58588216 L 60.197793,1.6959902 L 60.023893,2.8081152 L 59.744843,4.8910792 L 59.605323,6.8690872 L 59.641713,8.7784712 L 59.781243,10.61923 L 60.058263,12.355032 L 60.440443,14.022211 L 60.962143,15.653059 L 61.588993,17.215281 L 62.318963,18.706861 L 63.154083,20.129817 L 64.057953,21.518459 L 65.032603,22.872789 L 66.110373,24.190788 L 67.258923,25.440163 L 68.439823,26.691556 L 69.691493,27.906618 L 71.011913,29.087369 L 72.368733,30.2661 L 75.185503,32.556956 L 78.107423,34.8135 L 81.063713,37.104356 L 84.020003,39.429525 L 86.941923,41.859649 L 88.333123,43.109024 L 89.724313,44.392712 L 91.079113,45.712729 L 92.401563,47.065041 L 52.372313,47.030728 L 52.372313,81.779087 L 50.598943,82.681307 L 48.617293,78.620327 L 44.825883,80.737596 L 46.530503,82.95782 L 43.295153,83.411953 L 40.235743,83.932699 L 37.382573,84.524074 L 34.705333,85.182062 L 32.236363,85.94704 L 29.939273,86.744299 L 27.886853,87.646498 L 26.948603,88.100632 L 26.044723,88.621377 L 23.054063,84.733996 L 20.306043,86.467765 L 22.287693,91.120124 L 21.626463,91.501598 L 20.999613,91.881064 L 20.409173,92.298857 L 19.921843,92.75299 L 19.434523,93.237396 L 19.017973,93.721822 L 18.670173,94.242548 L 18.356753,94.797604 L 18.077703,95.35266 L 17.869423,95.944056 L 17.729903,96.567733 L 17.626773,97.195448 L 17.590383,97.853436 L 17.590383,98.547743 L 17.626773,99.276381 L 17.729903,100.00502 L 21.660843,98.271229 L 24.372463,94.624022 L 29.692573,97.924066 L 32.335443,95.946064 L 29.832093,93.100154 L 31.571093,92.264547 L 33.449613,91.467287 L 35.362503,90.77296 L 37.380553,90.145245 L 39.432973,89.55387 L 41.588513,89.069464 L 43.814833,88.655688 L 46.109903,88.304486 L 44.231383,91.5339 L 46.736753,92.924563 L 50.457393,89.176433 L 52.404663,91.049494 L 52.370293,137.29048 L 49.134953,137.49634 L 47.604233,137.66992 L 46.109903,137.87984 L 44.613563,138.12406 L 43.117213,138.4349 L 41.622893,138.81635 L 40.160923,139.26647 L 38.943623,136.28129 L 35.465633,137.87782 L 36.509033,140.65711 L 34.527383,141.14154 L 32.648863,141.66227 L 30.841123,142.21732 L 29.102123,142.80872 L 27.468273,143.4667 L 25.866783,144.12469 L 24.372463,144.85333 L 22.946893,145.6526 L 21.590063,146.44986 L 20.304023,147.31777 L 19.121103,148.21999 L 18.008953,149.15853 L 16.965553,150.13138 L 16.027303,151.17287 L 15.157803,152.21434 L 14.357063,153.32646 L 13.661463,154.50519 L 13.034613,155.68796 L 12.512913,156.93735 L 12.059963,158.22305 L 11.677793,159.57536 L 11.400763,160.964 L 11.190473,162.38696 L 11.087343,163.84625 L 11.087343,165.37213 L 11.156093,166.93637 L 11.295623,168.53292 L 11.572643,170.16578 L 11.886063,171.86524 L 12.336993,173.59903 L 12.858693,175.40548 L 13.449143,177.24624 L 10.145053,182.5909 L 12.300593,184.50231 L 16.023263,180.61087 L 17.586333,181.96722 L 19.151433,183.25292 L 20.752923,184.50231 L 22.386773,185.71736 L 24.022643,186.85977 L 25.690863,187.93555 L 27.361103,188.98108 L 29.065723,189.94989 L 30.804723,190.92274 L 32.509343,191.79065 L 34.282713,192.65856 L 36.021713,193.45582 L 37.795083,194.22078 L 39.604853,194.94942 L 41.414613,195.6074 L 43.256743,196.26943 L 40.197323,200.95206 L 42.144593,202.68989 L 46.318183,198.90542 L 52.404663,201.96125 L 52.333893,225.35826 L 132.60066,243.48126 L 132.60066,202.51832 L 135.17276,202.34473 L 134.93011,204.46203 L 137.22721,205.43084 L 140.53129,202.37904 L 146.16484,205.57212 L 147.48526,203.80201 L 146.78965,201.15995 L 165.15224,197.09899 L 164.94193,199.04268 L 167.89824,199.49682 L 169.77676,197.20192 L 172.4904,197.06466 L 175.62059,199.70268 L 177.88128,197.27458 L 175.06249,193.49013 L 176.35055,193.00573 L 177.56785,192.48498 L 178.68202,191.89359 L 179.65465,191.26991 L 180.55851,190.60788 L 181.32286,189.91356 L 182.01847,189.18494 L 182.61094,188.424 L 175.55183,187.90327 L 175.13327,188.28272 L 174.68031,188.66419 L 173.70768,189.32218 L 172.62991,189.84696 L 171.4834,190.29706 L 169.64126,186.13113 L 165.955,187.62473 L 166.92762,190.85412 L 140.28661,194.74152 L 139.93882,191.85927 L 136.28693,192.62425 L 136.32333,195.29658 L 132.60066,195.75071 L 132.49552,128.33697 L 138.68714,127.29144 L 136.84503,130.31497 L 136.77628,130.45221 L 136.77628,130.66213 L 136.94816,131.00929 L 137.26158,131.38874 L 137.71452,131.73994 L 138.20185,131.98013 L 138.68714,132.12141 L 139.1037,132.12141 L 139.27761,132.05076 L 139.41712,131.94379 L 142.23592,128.09273 L 146.19921,131.49571 L 146.44389,131.66929 L 146.72292,131.77224 L 147.03433,131.80856 L 147.31338,131.74197 L 147.62477,131.67132 L 147.90382,131.49773 L 148.18287,131.32415 L 148.42755,131.07992 L 148.63583,130.83975 L 148.80971,130.55919 L 148.94925,130.28266 L 149.05236,129.97184 L 149.08876,129.65698 L 149.05236,129.38047 L 148.94925,129.09991 L 148.77534,128.85972 L 145.81703,125.69895 L 148.56506,125.14389 L 151.2423,124.52021 L 153.81439,123.79158 L 156.28538,122.96001 L 158.6492,122.05779 L 160.9463,121.0486 L 163.10184,119.97282 L 165.18661,118.79408 L 167.13389,117.50838 L 168.97802,116.15606 L 170.71702,114.66247 L 172.31649,113.10226 L 173.81082,111.43508 L 175.20201,109.66498 L 175.82885,108.76276 L 176.45368,107.82422 L 177.04616,106.85538 L 177.60223,105.8462 L 180.55851,107.20255 L 180.69602,107.23889 L 180.83556,107.23889 L 181.18335,107.06531 L 181.53114,106.82107 L 181.84255,106.4396 L 182.08723,106.02584 L 182.26112,105.60803 L 182.29549,105.22656 L 182.26112,105.05297 L 182.19035,104.91573 L 179.06218,101.13128 L 182.05284,97.520394 L 182.1216,97.383152 L 182.158,97.245889 L 182.08924,96.894708 L 181.91535,96.583864 L 181.60191,96.30735 L 181.21975,96.063138 L 180.83959,95.889556 L 180.42103,95.853217 L 180.10962,95.960186 L 178.68405,96.757445 L 178.05719,95.368811 L 177.25646,94.016496 L 176.31618,92.730793 L 175.23841,91.51574 L 173.95236,90.332969 L 172.56117,89.224866 L 170.9617,88.149084 L 169.2227,87.176214 L 167.31184,86.237675 L 165.22504,85.335455 L 162.96434,84.538196 L 160.52975,83.773239 L 157.92328,83.078912 L 155.14088,82.451197 L 152.21896,81.896161 L 149.08876,81.411735 L 149.99265,79.330796 L 149.99265,79.193545 L 149.99265,79.034095 L 149.81874,78.793907 L 149.53969,78.549683 L 149.15753,78.376104 L 148.74097,78.238855 L 148.32442,78.202524 L 147.94225,78.238855 L 147.6996,78.412435 L 145.05471,80.947517 L 143.17619,80.737596 L 142.37544,77.30031 L 142.2703,77.090399 L 142.16513,76.953148 L 141.99125,76.8159 L 141.78297,76.708927 L 141.25924,76.605989 L 140.7052,76.605989 L 140.11273,76.743237 L 139.59103,76.916819 L 139.20884,77.197372 L 139.07136,77.370952 L 139.00259,77.580863 L 138.20185,80.218879 L 134.58434,74.143569 L 139.87008,56.751226 L 140.11273,55.709743 L 140.32301,54.738904 L 140.42818,53.802378 L 140.46255,52.900164 L 140.39379,52.032263 L 140.2199,51.232987 L 139.94085,50.504353 L 139.52429,49.844345 L 139.00259,49.218646 L 138.34138,48.663594 L 137.54063,48.211478 L 136.60238,47.830006 L 135.48821,47.517157 L 134.26889,47.274952 L 132.84331,47.135685 L 131.28024,47.101372 L 103.59786,47.065041 L 104.46735,44.287755 L 105.44201,41.68405 L 106.48541,39.185301 L 107.59755,36.823803 L 108.74609,34.567257 L 109.927,32.449981 L 111.17867,30.435642 L 112.43035,28.491947 L 113.75278,26.687518 L 115.07322,24.917403 L 116.43003,23.250224 L 117.78685,21.653689 L 119.14165,20.125779 L 120.53284,18.668511 L 123.27884,15.891226 L 128.49583,10.754461 L 130.93042,8.2557102 L 132.07695,7.0406502 L 133.15472,5.7912742 L 134.16375,4.5398822 L 135.13636,3.2905072 L 136.00587,1.9704892 L 136.84099,0.65248916 L 137.56894,-0.73615384 L 138.19781,-2.1611258 L 138.75185,-3.6183938 L 139.20481,-5.1463038 L 139.48386,-6.6035718 L 139.65776,-8.0265268 L 139.69414,-9.4858108 L 139.589,-10.943079 L 139.38072,-12.400347 L 139.0673,-13.859632 L 138.64873,-15.316899 L 138.12704,-16.774167 L 137.50019,-18.267764 L 136.80459,-19.727051 L 136.00384,-21.184319 L 135.13435,-22.641585 L 134.19406,-24.100871 L 133.18706,-25.592452 L 132.10929,-27.051736 L 130.96075,-28.509004 L 128.56053,-31.389225 L 125.98844,-34.271467 L 123.2748,-37.117378 L 120.4924,-39.928973 L 114.89324,-45.414919 L 109.51044,-50.725265 L 109.51044,-50.725265 z M 111.49209,-44.129214 L 110.48307,-42.669929 L 109.47404,-41.246974 L 108.43064,-39.926957 L 107.38726,-38.677581 L 106.30947,-37.462518 L 105.2317,-36.316081 L 102.97102,-34.130181 L 100.71032,-32.012905 L 98.449623,-29.929941 L 96.190953,-27.812664 L 93.962613,-25.55612 L 92.850463,-24.37537 L 91.772693,-23.125995 L 90.694923,-21.807996 L 89.651523,-20.453666 L 88.642503,-18.996398 L 87.633483,-17.434176 L 86.693213,-15.801309 L 85.754963,-14.065507 L 84.851083,-12.190436 L 83.981593,-10.212426 L 83.180843,-8.0951518 L 82.416493,-5.8386058 L 81.686513,-3.4084828 L 80.990923,-0.87542084 L 80.364073,1.8675512 L 79.808003,4.7820872 L 79.389423,7.1778982 L 79.146773,9.4344422 L 78.972873,11.551718 L 78.936483,13.566057 L 79.007253,15.475441 L 79.146773,17.245556 L 79.389423,18.912735 L 79.737223,20.50927 L 80.155793,22.000851 L 80.641103,23.389493 L 81.197173,24.743823 L 81.787623,25.993197 L 82.483223,27.208259 L 83.178823,28.352678 L 83.943173,29.428474 L 84.743913,30.504267 L 86.448533,32.518606 L 88.187533,34.42799 L 89.995273,36.303061 L 91.768653,38.212444 L 93.438893,40.190453 L 94.274013,41.197623 L 95.038363,42.273417 L 95.768333,43.385542 L 96.429563,44.52996 L 97.056413,45.779336 L 97.646863,47.063022 L 103.73537,34.323035 L 109.78545,21.720295 L 112.84688,15.368468 L 115.87194,8.9116832 L 118.93337,2.2813192 L 122.02716,-4.4883138 L 122.51449,-5.7033768 L 122.93105,-6.9184368 L 123.31321,-8.1678128 L 123.62462,-9.4514988 L 123.8693,-10.771518 L 124.07756,-12.123829 L 124.21709,-13.478159 L 124.32224,-14.866802 L 124.35661,-16.221132 L 124.32224,-17.644087 L 124.25146,-19.03273 L 124.11396,-20.455685 L 123.94007,-21.844328 L 123.72977,-23.267283 L 123.45072,-24.655925 L 123.10292,-26.044566 L 122.72074,-27.398898 L 122.3042,-28.751209 L 121.81688,-30.105539 L 121.29518,-31.425557 L 120.70471,-32.709245 L 120.07787,-33.958618 L 119.41666,-35.173681 L 118.72105,-36.354431 L 117.9567,-37.49885 L 117.15595,-38.608956 L 116.32083,-39.684751 L 115.41697,-40.69192 L 114.51309,-41.628446 L 113.54046,-42.53066 L 112.53145,-43.36425 L 111.49209,-44.129214 L 111.49209,-44.129214 z M 52.370293,143.63826 L 52.370293,190.6765 L 48.510123,192.06313 L 47.848903,191.75231 L 47.222053,191.37083 L 46.665983,190.95304 L 46.178653,190.46861 L 45.691333,189.91356 L 45.272763,189.35852 L 44.924963,188.70051 L 44.611533,188.04252 L 41.167923,189.77631 L 39.568453,189.35852 L 38.037733,188.87409 L 36.541383,188.38969 L 35.081433,187.79831 L 33.621493,187.20692 L 32.230293,186.51261 L 30.873473,185.81828 L 29.518673,185.02102 L 28.232623,184.22175 L 26.944553,183.31953 L 25.727263,182.41731 L 24.544333,181.41216 L 23.363443,180.37069 L 22.249273,179.29489 L 21.171493,178.14846 L 20.093723,176.93339 L 22.146143,173.04601 L 20.686193,172.45461 L 18.530653,173.59702 L 17.974573,172.34764 L 17.452873,171.09826 L 17.070703,169.91954 L 16.722903,168.74081 L 16.478233,167.59436 L 16.304333,166.44793 L 16.235583,165.37213 L 16.235583,164.29634 L 16.304333,163.25485 L 16.443853,162.2497 L 16.652133,161.24455 L 16.931173,160.30601 L 17.278973,159.36747 L 17.697553,158.46525 L 18.184873,157.59734 L 18.740943,156.76577 L 19.331393,155.93017 L 19.990593,155.16925 L 20.722593,154.40429 L 21.486943,153.67565 L 22.322063,152.98132 L 23.225933,152.3193 L 24.164183,151.69562 L 25.138833,151.10425 L 26.147853,150.54919 L 27.225623,149.99817 L 28.337773,149.50973 L 29.520693,149.0253 L 30.703613,148.60751 L 31.920913,148.19373 L 34.529413,147.49539 L 34.703303,149.37246 L 36.858853,150.24037 L 39.572493,147.22088 L 41.448993,147.18454 L 45.206033,149.68331 L 46.805503,147.21885 L 44.787463,144.89369 L 45.588203,144.40928 L 46.492083,144.02781 L 47.395953,143.7836 L 48.368573,143.61001 L 49.341203,143.5434 L 50.350223,143.50706 L 52.370293,143.63826 L 52.370293,143.63826 z M 138.72354,90.423788 L 143.3157,87.60815 L 149.22627,90.143236 L 149.64484,86.81292 L 152.70629,87.64449 L 155.62618,88.546709 L 158.37421,89.448909 L 160.9463,90.421779 L 163.31012,91.390591 L 165.43129,92.432082 L 167.34418,93.507863 L 168.1793,94.062919 L 168.94365,94.654295 L 169.64126,95.245691 L 170.26812,95.833028 L 170.82217,96.460743 L 171.30949,97.118751 L 171.69168,97.776739 L 172.00307,98.438765 L 172.21338,99.133072 L 172.31852,99.827399 L 172.35289,100.55604 L 172.28415,101.32099 L 172.14461,102.08193 L 171.86759,102.8812 L 171.5198,103.68049 L 171.03247,104.54838 L 170.44201,105.37995 L 169.7808,106.28217 L 171.41667,108.15523 L 170.54514,109.26735 L 169.57455,110.37947 L 168.49678,111.45527 L 167.38261,112.49674 L 166.13093,113.46961 L 164.84285,114.43843 L 163.48603,115.30634 L 162.09484,116.17826 L 160.63286,116.97552 L 159.10215,117.70416 L 157.57143,118.36215 L 156.00836,118.95352 L 154.40889,119.47427 L 152.80942,119.9284 L 151.20792,120.30787 L 149.60846,120.58842 L 149.29704,120.58842 L 149.05236,120.51777 L 148.60146,120.30787 L 148.11413,120.10198 L 147.87148,120.03135 L 147.59243,120.03135 L 143.45321,122.14863 L 141.15813,118.4005 L 137.71452,119.61557 L 138.86105,122.0477 L 138.65074,122.56845 L 138.33935,122.9822 L 137.95717,123.29709 L 137.47187,123.47065 L 136.98456,123.50699 L 136.49924,123.40002 L 136.25458,123.26275 L 136.04631,123.08917 L 135.836,122.87927 L 135.69851,122.60276 L 136.04631,120.62474 L 136.32536,118.71335 L 136.46286,116.80598 L 136.46286,114.89861 L 136.28895,113.05785 L 135.94116,111.25142 L 135.73086,110.3492 L 135.41946,109.48129 L 135.10604,108.6134 L 134.72386,107.78183 L 135.42147,105.76749 L 136.04833,103.68654 L 136.60441,101.56523 L 137.1261,99.413643 L 137.57703,97.229758 L 137.9956,94.971186 L 138.37778,92.716671 L 138.72354,90.423788 L 138.72354,90.423788 z M 97.616523,140.92961 L 93.546063,137.52661 L 90.381493,141.10116 L 90.241973,141.20813 L 90.068073,141.27474 L 89.685893,141.27474 L 89.269353,141.17181 L 88.816403,140.96189 L 88.434223,140.68538 L 88.120803,140.33418 L 87.948923,139.98701 L 87.912523,139.84977 L 87.948923,139.67619 L 88.678903,137.00386 L 64.021563,141.2384 L 64.055933,216.25742 L 119.38835,228.85611 L 119.28319,132.07702 L 116.8122,132.66435 L 114.30887,133.1528 L 111.80551,133.60289 L 109.26779,134.02071 L 104.01442,134.78566 L 98.625553,135.51026 L 100.25939,138.94755 L 100.29579,139.12113 L 100.29579,139.33105 L 100.12188,139.78519 L 99.808463,140.19894 L 99.391933,140.58042 L 98.938973,140.85695 L 98.417273,141.03455 L 97.964323,141.06685 L 97.754033,141.03455 L 97.616523,140.92961 L 97.616523,140.92961 z M 64.021563,58.0006 L 119.28319,58.0006 L 119.28319,126.17932 L 92.955613,129.89314 L 92.468293,126.87364 L 89.129823,128.15935 L 89.338103,130.65809 L 64.019543,134.89263 L 64.019543,58.0006 L 64.021563,58.0006 z "
   clip-rule="evenodd" /></svg>

<svg xmlns="http://www.w3.org/2000/svg" version="1" width="95" height="155" viewBox="0 0 192.756 192.756"><path d="M109.51-50.725l-1.32 1.978-1.391 1.943-1.495 1.84-1.563 1.806-1.67 1.735-1.704 1.666-1.81 1.632-1.842 1.563L94.836-35l-1.913 1.493-3.86 2.951-7.825 5.763-3.755 2.882-1.845 1.492-1.773 1.493L72.16-17.4l-1.635 1.528-1.563 1.599-1.462 1.667-1.357 1.663-1.286 1.77-1.147 1.806-1.009 1.876-.904 1.943-.382 1.007-.348 1.008-.348 1.075L60.44.586l-.242 1.11-.174 1.112-.28 2.083-.139 1.978.037 1.91.14 1.84.276 1.736.382 1.667.522 1.631.627 1.562.73 1.492.835 1.423.904 1.388.975 1.355 1.077 1.318 1.149 1.25 1.18 1.25 1.252 1.216 1.32 1.18 1.358 1.18 2.817 2.29 2.921 2.256 2.957 2.291 2.956 2.326 2.922 2.43 1.391 1.249 1.391 1.284 1.355 1.32 1.323 1.352-40.03-.034v34.748l-1.773.902-1.982-4.06-3.791 2.117 1.705 2.22-3.236.454-3.06.52-2.852.592-2.678.658-2.469.765-2.297.797-2.052.902-.938.455-.904.52-2.99-3.887-2.749 1.734 1.982 4.652-.662.382-.626.38-.59.417-.488.454-.487.484-.417.485-.348.52-.313.556-.28.555-.208.591-.14.624-.102.627-.037.658v.695l.037.728.103.729 3.93-1.734 2.712-3.647 5.32 3.3 2.643-1.978-2.503-2.846 1.74-.835 1.878-.798 1.913-.694 2.018-.628 2.052-.591 2.156-.485 2.226-.413 2.295-.352-1.879 3.23 2.506 1.39 3.72-3.748 1.948 1.873-.035 46.241-3.235.206-1.53.174-1.495.21-1.496.244-1.497.31-1.494.382-1.462.45-1.217-2.985-3.478 1.597 1.043 2.78-1.982.484-1.878.52-1.808.555-1.739.592-1.634.658-1.601.658-1.495.728-1.425.8-1.357.797-1.286.868-1.183.902-1.112.939-1.043.972-.939 1.042-.87 1.041-.8 1.112-.696 1.18-.626 1.182-.522 1.25-.453 1.285-.382 1.352-.277 1.389-.21 1.423-.104 1.46v1.525l.07 1.564.139 1.597.277 1.633.313 1.7.451 1.733.522 1.806.59 1.841-3.304 5.345 2.156 1.911 3.722-3.891 1.563 1.356 1.565 1.286 1.602 1.25 1.634 1.214 1.636 1.143 1.668 1.076 1.67 1.045 1.705.969 1.739.973 1.704.868 1.774.868 1.739.797 1.773.765 1.81.728 1.81.658 1.842.662-3.06 4.683 1.948 1.738 4.173-3.785 6.087 3.056-.071 23.397 80.267 18.123v-40.963l2.572-.173-.243 2.117 2.297.969 3.304-3.052 5.634 3.193 1.32-1.77-.695-2.642 18.362-4.061-.21 1.944 2.956.454 1.879-2.295 2.713-.137 3.13 2.638 2.261-2.428-2.819-3.785 1.289-.484 1.217-.521 1.114-.591.973-.624.904-.662.764-.694.695-.73.593-.76-7.06-.52-.418.379-.453.381-.972.658-1.078.525-1.147.45-1.842-4.166-3.686 1.494.973 3.23-26.641 3.887-.348-2.883-3.652.765.036 2.673-3.722.454-.105-67.414 6.191-1.046-1.842 3.024-.069.137v.21l.172.347.314.38.453.35.487.241.485.141h.417l.174-.07.14-.107 2.818-3.851 3.963 3.403.245.173.279.103.311.037.28-.067.31-.07.28-.174.279-.174.245-.244.208-.24.174-.28.14-.277.102-.311.037-.315-.037-.277-.103-.28-.174-.24-2.958-3.161 2.748-.555 2.677-.624 2.572-.728 2.471-.832 2.364-.902 2.297-1.01 2.156-1.075 2.085-1.179 1.947-1.286 1.844-1.352 1.739-1.494 1.6-1.56 1.494-1.667 1.391-1.77.627-.902.625-.939.592-.969.556-1.009 2.957 1.357.137.036h.14l.347-.174.348-.244.312-.381.244-.414.174-.418.034-.381-.034-.174-.07-.137-3.129-3.785 2.99-3.61.07-.138.036-.137-.069-.351-.174-.311-.313-.277-.382-.244-.38-.173-.419-.037-.311.107-1.426.797-.627-1.388-.8-1.353-.94-1.285-1.079-1.215-1.286-1.183-1.39-1.108-1.6-1.076-1.74-.973-1.91-.938-2.087-.903-2.26-.797-2.435-.765-2.607-.694-2.782-.628-2.922-.555-3.13-.484.904-2.081V79.034l-.174-.24-.28-.244-.381-.174-.417-.137-.417-.036-.382.036-.242.173-2.645 2.536-1.879-.21-.8-3.438-.106-.21-.105-.137-.174-.137-.208-.107-.524-.103h-.554l-.592.137-.522.174-.382.28-.138.174-.068.21-.801 2.638-3.618-6.075 5.286-17.393.243-1.041.21-.971.105-.937.035-.902-.07-.868-.173-.799-.28-.729-.416-.66-.521-.625-.662-.555-.8-.453-.939-.381-1.114-.313-1.22-.242-1.425-.14-1.563-.034-27.682-.036.87-2.777.974-2.604 1.043-2.499 1.113-2.361 1.148-2.257 1.181-2.117 1.252-2.014 1.251-1.944 1.323-1.804 1.32-1.77 1.357-1.668 1.357-1.596 1.355-1.528 1.39-1.457 2.747-2.778 5.217-5.137 2.434-2.498 1.147-1.215 1.078-1.25 1.009-1.251.972-1.25.87-1.32.835-1.318.728-1.388.629-1.425.554-1.457.453-1.528.279-1.458.174-1.423.036-1.459-.105-1.457-.208-1.457-.314-1.46-.418-1.457-.522-1.457-.627-1.494-.695-1.46-.801-1.456-.87-1.458-.94-1.459-1.007-1.491-1.078-1.46-1.148-1.457-2.4-2.88-2.573-2.882-2.713-2.846-2.783-2.812-5.599-5.486-5.383-5.31zm1.982 6.596l-1.009 1.46-1.009 1.422-1.043 1.32-1.044 1.25-1.078 1.214-1.077 1.147-2.261 2.186-2.26 2.117-2.261 2.083-2.259 2.117-2.228 2.257-1.113 1.18-1.077 1.25-1.078 1.318-1.043 1.354-1.01 1.458-1.009 1.562-.94 1.633-.938 1.735-.904 1.876-.87 1.978-.8 2.117-.765 2.256-.73 2.43-.695 2.534-.627 2.743-.556 2.914-.419 2.396-.242 2.256-.174 2.118-.037 2.014.071 1.91.14 1.77.242 1.667.348 1.596.419 1.492.485 1.388.556 1.355.59 1.25.696 1.214.696 1.145.764 1.075.8 1.076 1.706 2.015 1.739 1.909 1.807 1.875 1.774 1.91 1.67 1.977.835 1.008.764 1.075.73 1.113.662 1.144.626 1.25.59 1.283 6.09-12.74 6.05-12.603 3.06-6.352 3.026-6.456 3.061-6.63 3.094-6.77.487-1.215.417-1.215.382-1.25.312-1.283.244-1.32.209-1.353.14-1.354.104-1.389.035-1.354-.035-1.423-.07-1.389-.138-1.423-.174-1.388-.21-1.423-.28-1.389-.347-1.389-.382-1.354-.417-1.352-.487-1.355-.522-1.32-.59-1.283-.627-1.25-.661-1.215-.696-1.18-.764-1.145-.801-1.11-.835-1.076-.904-1.007-.904-.936-.973-.903-1.009-.833-1.039-.765zM52.37 143.638v47.038l-3.86 1.387-.661-.31-.627-.382-.556-.418-.487-.484-.488-.555-.418-.555-.348-.658-.313-.658-3.444 1.733-1.6-.417-1.53-.485-1.497-.484-1.46-.592-1.46-.591-1.39-.694-1.358-.695-1.354-.797-1.286-.8-1.288-.901-1.218-.903-1.183-1.005-1.18-1.041-1.115-1.076-1.078-1.147-1.077-1.215 2.052-3.887-1.46-.591-2.155 1.142-.556-1.25-.522-1.249-.382-1.178-.348-1.18-.245-1.146-.174-1.146-.068-1.076v-1.076l.068-1.041.14-1.005.208-1.005.28-.939.347-.939.419-.902.487-.868.556-.831.59-.836.66-.76.732-.766.764-.728.835-.695.904-.662.938-.623.975-.592 1.009-.555 1.078-.55 1.112-.49 1.183-.484 1.183-.417 1.217-.414 2.608-.699.174 1.877 2.156.868 2.713-3.02 1.877-.035 3.757 2.498 1.6-2.464-2.019-2.325.801-.485.904-.381.904-.244.973-.174.972-.067 1.01-.036 2.02.131zm86.354-53.214l4.592-2.816 5.91 2.535.419-3.33 3.061.831 2.92.903 2.748.902 2.572.973 2.364.969 2.121 1.041 1.913 1.076.835.555.765.591.697.592.627.587.554.628.487.658.383.658.311.662.21.694.106.694.034.729-.069.765-.14.76-.276.8-.348.8-.488.867-.59.832-.661.902 1.636 1.873-.872 1.112-.97 1.112-1.078 1.076-1.114 1.042-1.252.973-1.288.968-1.357.868-1.391.872-1.462.798-1.53.728-1.532.658-1.563.592-1.6.52-1.599.454-1.601.38-1.6.28h-.311l-.245-.07-.45-.21-.488-.206-.243-.07h-.279l-4.139 2.117-2.295-3.749-3.443 1.216 1.146 2.432-.21.52-.312.414-.382.315-.485.174-.487.036-.486-.107-.244-.137-.209-.174-.21-.21-.137-.276.347-1.978.28-1.912.137-1.907v-1.907l-.174-1.841-.348-1.807-.21-.902-.312-.868-.313-.868-.382-.831.697-2.015.627-2.08.556-2.122.522-2.151.451-2.184.419-2.259.382-2.254.346-2.293zM97.617 140.93l-4.07-3.403-3.166 3.574-.139.107-.174.067h-.382l-.417-.103-.453-.21-.382-.277-.313-.35-.172-.348-.036-.137.036-.174.73-2.672-24.657 4.234.034 75.02 55.332 12.598-.105-96.779-2.47.587-2.504.489-2.503.45-2.538.418-5.254.765-5.388.724 1.633 3.438.037.173v.21l-.174.454-.314.414-.416.381-.453.277-.522.178-.453.032-.21-.032-.137-.105zM64.022 58h55.261v68.18l-26.327 3.713-.488-3.02-3.338 1.286.208 2.5-25.318 4.234V58h.002z" clip-rule="evenodd" fill-rule="evenodd"/></svg>
